images/people/people-29.svg

<?xml version="1.0" standalone="no"?><!DOCTYPE svg PUBLIC "-//W3C//DTD SVG 1.1//EN" "http://www.w3.org/Graphics/SVG/1.1/DTD/svg11.dtd"><svg width="120px" height="192px" version="1.1" xmlns="http://www.w3.org/2000/svg" xmlns:xlink="http://www.w3.org/1999/xlink" xml:space="preserve" style="fill-rule:evenodd;clip-rule:evenodd;stroke-linejoin:round;stroke-miterlimit:1.41421;"><g><g id="people-29" transform="matrix(1,0,0,1,-1156.34,-48)"><g transform="matrix(1,0,0,1,0,-12)"><path d="M1199.15,145.5l6.024,26.479l3.905,-1.791l-7.179,-31.188l-2.75,6.5Z" style="fill:#72594b;fill-rule:nonzero;"/></g><g transform="matrix(1,0,0,1,0,-12)"><path d="M1208.46,170.017l4.797,1.093l0.812,5.344l-8.085,0.646l-0.034,-5.902l0.329,1.814l-3.729,0.645l-0.322,-3.547l6.232,-0.093Z" style="fill:#72594b;fill-rule:nonzero;"/></g><g transform="matrix(1,0,0,1,0,-12)"><path d="M1245.22,230.52l0.943,6.871l-9.701,-0.172l-0.515,-7.384l9.273,0.685Z" style="fill:#2a2b2a;fill-rule:nonzero;"/></g><g transform="matrix(1,0,0,1,0,-12)"><path d="M1228.35,239.753l-1.377,9.058l0.773,2.189l8.284,0l1.351,-9.981l-9.031,-1.266Z" style="fill:#2a2b2a;fill-rule:nonzero;"/></g><g transform="matrix(1,0,0,1,0,-12)"><path d="M1228.04,124.905l1.291,-1.889l2.061,-5.839l7.5,1.489l1.509,3.709l2.063,1.5l-7.102,11.462l-7.322,-10.432Z" style="fill:#ceab97;fill-rule:nonzero;"/></g><g transform="matrix(1,0,0,1,0,-12)"><path d="M1232.84,121.339l4.287,0l4.615,-5.935l-0.824,-12.694l-8.234,-1.375l-5.115,2.034l0.164,12.035l5.107,5.935Z" style="fill:#e1c5b5;fill-rule:nonzero;"/></g><g transform="matrix(1,0,0,1,0,-12)"><path d="M1230.19,101.55l0.43,-1.718l13.816,1.337l1.15,9.826l-4.277,0.258l-3.348,-6.827l-6.224,-0.901l-1.547,-1.975Z" style="fill:#e4e2dc;fill-rule:nonzero;"/></g><g transform="matrix(1,0,0,1,0,-12)"><path d="M1241.22,107.956l2.822,0.047l0.223,4.916l-2.879,-0.15l-0.166,-4.813Z" style="fill:#e1c5b5;fill-rule:nonzero;"/></g><g transform="matrix(1,0,0,1,0,-12)"><path d="M1231.78,103.524l-3.479,1.417l-0.64,6.182l-5.057,0.644l0.582,-8.142l7.5,-3.75l1.094,3.649Z" style="fill:#e4e2dc;fill-rule:nonzero;"/></g><g transform="matrix(1,0,0,1,0,-12)"><path d="M1227.94,108.625l-2.848,0.775l0.223,4.122l2.518,0.098l0.107,-4.995Z" style="fill:#e1c5b5;fill-rule:nonzero;"/></g><g transform="matrix(1,0,0,1,0,-12)"><path d="M1255.88,169.037l-10.666,61.483l-8.414,0l-1.201,-57.358l2.795,26.46l-1.078,41.46l-8.926,-1.288l-4.096,-39.927l-7.035,-30.867l23.426,-2.438l15.195,2.475Z" style="fill:#5c5e5f;fill-rule:nonzero;"/></g><g transform="matrix(1,0,0,1,0,-12)"><path d="M1236.15,173.062l4.166,27.896l-2.729,29.571l9.229,-9.113l5.583,-32.25l-16.249,-16.104Z" style="fill:#171817;fill-opacity:0.5;fill-rule:nonzero;"/></g><g transform="matrix(1,0,0,1,0,-12)"><path d="M1207.13,164.573l-2.349,5.768l0.451,7.992l5.479,-1.596l0.541,-6.748l-0.219,2.034l2.399,0.107l-0.871,-5.549l-5.431,-2.008Z" style="fill:#e1c5b5;fill-rule:nonzero;"/></g><g transform="matrix(1,0,0,1,0,-12)"><path d="M1264.4,165.273l1.775,4.479l-0.156,7.378l-5.221,-0.381l-0.587,-6.746l0.232,2.033l-2.494,0.344l0.838,-5.593l5.613,-1.514Z" style="fill:#e1c5b5;fill-rule:nonzero;"/></g><g transform="matrix(1,0,0,1,0,-12)"><path d="M1242.6,123.746l10.229,2.705l11.901,39.665l-6.042,0.601l-10.121,-32.627l7.379,34.945l-38.684,-0.035l5.893,-32.161l-10.53,29.821l-5.728,-1.459l12.307,-36.861l8.841,-3.565l8.371,8.502l6.184,-9.531Z" style="fill:#313156;fill-rule:nonzero;"/></g><g transform="matrix(1,0,0,1,0,-12)"><path d="M1179.28,139.584l4.798,-1.888l10.425,-0.406l-1.975,-8.332l-12.688,-0.233l-0.56,10.859Z" style="fill:#e4e2dc;fill-rule:nonzero;"/></g><g transform="matrix(1,0,0,1,0,-12)"><path d="M1180.22,137.639l2.554,-1.703l1.857,-5.265l4.292,1.223l1.361,3.346l2.942,1.47l-1.858,6.116l-8.748,0.233l-2.4,-5.42Z" style="fill:#553f37;fill-rule:nonzero;"/></g><g transform="matrix(1,0,0,1,0,-12)"><path d="M1193.99,232.868l0.853,6.195l-7.039,-0.155l-0.465,-6.658l6.651,0.618Z" style="fill:#2a2b2a;fill-rule:nonzero;"/></g><g transform="matrix(1,0,0,1,0,-12)"><path d="M1187.49,195.397l0.929,46.917l-7.19,-1.083l-4.568,-45.989" style="fill:#72594b;fill-rule:nonzero;"/></g><g transform="matrix(1,0,0,1,0,-12)"><path d="M1187.34,178.828l0.156,19.819l0.736,33.835l5.76,0.386l2.324,-34.433l-8.976,-19.607Z" style="fill:#553f37;fill-rule:nonzero;"/></g><g transform="matrix(1,0,0,1,0,-12)"><path d="M1201.96,139.032l-8.704,-2.352l-2.274,5.603l-8.052,0.233l-2.709,-4.994l-8.192,3.563l4.211,6.999l-0.293,12l-4.205,67.9l29.847,0.233l-3.886,-67.633l0.704,-12.833l3.553,-8.719Z" style="fill:#694;fill-rule:nonzero;"/></g><g transform="matrix(1,0,0,1,0,-12)"><path d="M1180.04,249.359l2.614,1.975l4.761,0l1.218,-9.001l-7.353,-1.141l-1.24,8.167Z" style="fill:#2a2b2a;fill-rule:nonzero;"/></g><g transform="matrix(1,0,0,1,0,-12)"><path d="M1184.54,134.423l3.864,0l4.162,-5.351l-0.744,-11.446l-7.423,-1.24l-4.614,1.835l0.149,10.851l4.606,5.351Z" style="fill:#72594b;fill-rule:nonzero;"/></g><g transform="matrix(1,0,0,1,0,-12)"><path d="M1167.49,169.27l-0.985,5.412l1.427,7.047l2.573,-1.444l-0.737,-6.061l0.171,1.838l2.392,-0.595l-0.966,-4.113l-3.875,-2.084Z" style="fill:#72594b;fill-rule:nonzero;"/></g><g transform="matrix(1,0,0,1,0,-12)"><path d="M1176.24,147.958l-4.878,23.433l-4.052,-1.145l4.741,-29.037l4.189,6.749Z" style="fill:#72594b;fill-rule:nonzero;"/></g><g transform="matrix(1,0,0,1,0,-12)"><path d="M1185.65,113.001l8.583,2.708l4.707,23.208l-4.851,5.167l0.059,-5.574l-0.31,-1.646l-1.491,-7.529l-1.864,-9.501l-5.103,-2.083l0.27,-4.75Z" style="fill:#e4e2dc;fill-rule:nonzero;"/></g><g transform="matrix(1,0,0,1,0,-12)"><path d="M1185.47,117.751l-5.022,1.887l-0.588,22.196l-4.248,-0.749l0.832,-23.918l9.334,-4.25l-0.308,4.834Z" style="fill:#e4e2dc;fill-rule:nonzero;"/></g></g></g></svg>

<?xml version="1.0" encoding="UTF-8" standalone="no"?>
<!DOCTYPE svg PUBLIC "-//W3C//DTD SVG 1.1//EN" "http://www.w3.org/Graphics/SVG/1.1/DTD/svg11.dtd">
<svg width="100%" height="100%" viewBox="0 0 140 220" version="1.1" xmlns="http://www.w3.org/2000/svg" xmlns:xlink="http://www.w3.org/1999/xlink" xml:space="preserve" xmlns:serif="http://www.serif.com/" style="fill-rule:evenodd;clip-rule:evenodd;stroke-linejoin:round;stroke-miterlimit:2;">
    <g id="people-29" transform="matrix(1.27,0,0,1.27,-1474.75,-84.8)">
        <g transform="matrix(1,0,0,1,0,-12)">
            <path d="M1199.15,145.5L1205.18,171.979L1209.08,170.188L1201.9,139L1199.15,145.5Z" style="fill:rgb(114,89,75);fill-rule:nonzero;"/>
        </g>
        <g transform="matrix(1,0,0,1,0,-12)">
            <path d="M1208.46,170.017L1213.26,171.11L1214.07,176.454L1205.99,177.1L1205.95,171.198L1206.28,173.012L1202.55,173.657L1202.23,170.11L1208.46,170.017Z" style="fill:rgb(114,89,75);fill-rule:nonzero;"/>
        </g>
        <g transform="matrix(1,0,0,1,0,-12)">
            <path d="M1245.22,230.521L1246.16,237.392L1236.46,237.22L1235.94,229.836L1245.22,230.521Z" style="fill:rgb(42,43,42);fill-rule:nonzero;"/>
        </g>
        <g transform="matrix(1,0,0,1,0,-12)">
            <path d="M1228.35,239.753L1226.98,248.811L1227.75,251L1236.03,251L1237.38,241.019L1228.35,239.753Z" style="fill:rgb(42,43,42);fill-rule:nonzero;"/>
        </g>
        <g transform="matrix(1,0,0,1,0,-12)">
            <path d="M1228.05,124.905L1229.34,123.016L1231.4,117.177L1238.9,118.666L1240.41,122.375L1242.47,123.875L1235.37,135.337L1228.05,124.905Z" style="fill:rgb(206,171,151);fill-rule:nonzero;"/>
        </g>
        <g transform="matrix(1,0,0,1,0,-12)">
            <path d="M1232.84,121.339L1237.12,121.339L1241.74,115.404L1240.92,102.71L1232.68,101.335L1227.57,103.369L1227.73,115.404L1232.84,121.339Z" style="fill:rgb(225,197,181);fill-rule:nonzero;"/>
        </g>
        <g transform="matrix(1,0,0,1,0,-12)">
            <path d="M1230.19,101.55L1230.62,99.832L1244.44,101.169L1245.59,110.995L1241.31,111.253L1237.96,104.426L1231.74,103.525L1230.19,101.55Z" style="fill:rgb(228,226,220);fill-rule:nonzero;"/>
        </g>
        <g transform="matrix(1,0,0,1,0,-12)">
            <path d="M1241.23,107.956L1244.05,108.003L1244.27,112.919L1241.39,112.769L1241.23,107.956Z" style="fill:rgb(225,197,181);fill-rule:nonzero;"/>
        </g>
        <g transform="matrix(1,0,0,1,0,-12)">
            <path d="M1231.78,103.524L1228.3,104.941L1227.66,111.123L1222.6,111.767L1223.18,103.625L1230.68,99.875L1231.78,103.524Z" style="fill:rgb(228,226,220);fill-rule:nonzero;"/>
        </g>
        <g transform="matrix(1,0,0,1,0,-12)">
            <path d="M1227.94,108.625L1225.09,109.4L1225.31,113.522L1227.83,113.62L1227.94,108.625Z" style="fill:rgb(225,197,181);fill-rule:nonzero;"/>
        </g>
        <g transform="matrix(1,0,0,1,0,-12)">
            <path d="M1255.88,169.037L1245.22,230.52L1236.8,230.52L1235.6,173.162L1238.4,199.622L1237.32,241.082L1228.39,239.794L1224.3,199.867L1217.26,169L1240.69,166.562L1255.88,169.037Z" style="fill:rgb(92,94,95);fill-rule:nonzero;"/>
        </g>
        <g transform="matrix(1,0,0,1,0,-12)">
            <path d="M1236.15,173.063L1240.31,200.959L1237.58,230.529L1246.81,221.416L1252.4,189.167L1236.15,173.063Z" style="fill:rgb(23,24,23);fill-opacity:0.5;fill-rule:nonzero;"/>
        </g>
        <g transform="matrix(1,0,0,1,0,-12)">
            <path d="M1207.13,164.573L1204.78,170.341L1205.23,178.333L1210.71,176.737L1211.25,169.989L1211.03,172.023L1213.43,172.13L1212.56,166.581L1207.13,164.573Z" style="fill:rgb(225,197,181);fill-rule:nonzero;"/>
        </g>
        <g transform="matrix(1,0,0,1,0,-12)">
            <path d="M1264.4,165.273L1266.17,169.752L1266.02,177.13L1260.8,176.749L1260.21,170.003L1260.44,172.036L1257.95,172.38L1258.78,166.787L1264.4,165.273Z" style="fill:rgb(225,197,181);fill-rule:nonzero;"/>
        </g>
        <g transform="matrix(1,0,0,1,0,-12)">
            <path d="M1242.6,123.746L1252.83,126.451L1264.73,166.116L1258.69,166.717L1248.57,134.09L1255.95,169.035L1217.26,169L1223.15,136.839L1212.62,166.66L1206.9,165.201L1219.2,128.34L1228.05,124.775L1236.42,133.277L1242.6,123.746Z" style="fill:rgb(49,49,86);fill-rule:nonzero;"/>
        </g>
        <g transform="matrix(1,0,0,1,0,-12)">
            <path d="M1179.28,139.584L1184.08,137.696L1194.5,137.29L1192.53,128.958L1179.84,128.725L1179.28,139.584Z" style="fill:rgb(228,226,220);fill-rule:nonzero;"/>
        </g>
        <g transform="matrix(1,0,0,1,0,-12)">
            <path d="M1180.22,137.639L1182.77,135.936L1184.63,130.671L1188.92,131.894L1190.28,135.24L1193.22,136.71L1191.36,142.826L1182.62,143.059L1180.22,137.639Z" style="fill:rgb(85,63,55);fill-rule:nonzero;"/>
        </g>
        <g transform="matrix(1,0,0,1,0,-12)">
            <path d="M1193.99,232.868L1194.84,239.063L1187.8,238.908L1187.34,232.25L1193.99,232.868Z" style="fill:rgb(42,43,42);fill-rule:nonzero;"/>
        </g>
        <g transform="matrix(1,0,0,1,0,-12)">
            <path d="M1187.49,195.397L1188.42,242.314L1181.23,241.231L1176.66,195.242" style="fill:rgb(114,89,75);fill-rule:nonzero;"/>
        </g>
        <g transform="matrix(1,0,0,1,0,-12)">
            <path d="M1187.34,178.828L1187.49,198.647L1188.23,232.482L1193.99,232.868L1196.31,198.435L1187.34,178.828Z" style="fill:rgb(85,63,55);fill-rule:nonzero;"/>
        </g>
        <g transform="matrix(1,0,0,1,0,-12)">
            <path d="M1201.95,139.032L1193.25,136.68L1190.98,142.283L1182.92,142.516L1180.22,137.522L1172.02,141.085L1176.24,148.084L1175.94,160.084L1171.74,227.984L1201.58,228.217L1197.7,160.584L1198.4,147.751L1201.95,139.032Z" style="fill:rgb(102,153,68);fill-rule:nonzero;"/>
        </g>
        <g transform="matrix(1,0,0,1,0,-12)">
            <path d="M1180.04,249.359L1182.65,251.334L1187.41,251.334L1188.63,242.333L1181.28,241.192L1180.04,249.359Z" style="fill:rgb(42,43,42);fill-rule:nonzero;"/>
        </g>
        <g transform="matrix(1,0,0,1,0,-12)">
            <path d="M1184.54,134.423L1188.4,134.423L1192.56,129.072L1191.82,117.626L1184.4,116.386L1179.78,118.221L1179.93,129.072L1184.54,134.423Z" style="fill:rgb(114,89,75);fill-rule:nonzero;"/>
        </g>
        <g transform="matrix(1,0,0,1,0,-12)">
            <path d="M1167.49,169.271L1166.5,174.683L1167.93,181.73L1170.5,180.286L1169.76,174.225L1169.93,176.063L1172.33,175.468L1171.36,171.355L1167.49,169.271Z" style="fill:rgb(114,89,75);fill-rule:nonzero;"/>
        </g>
        <g transform="matrix(1,0,0,1,0,-12)">
            <path d="M1176.24,147.958L1171.36,171.391L1167.31,170.246L1172.05,141.209L1176.24,147.958Z" style="fill:rgb(114,89,75);fill-rule:nonzero;"/>
        </g>
        <g transform="matrix(1,0,0,1,0,-12)">
            <path d="M1185.65,113.001L1194.24,115.709L1198.94,138.917L1194.09,144.084L1194.15,138.51L1193.84,136.864L1192.35,129.335L1190.49,119.834L1185.38,117.751L1185.65,113.001Z" style="fill:rgb(228,226,220);fill-rule:nonzero;"/>
        </g>
        <g transform="matrix(1,0,0,1,0,-12)">
            <path d="M1185.47,117.751L1180.45,119.638L1179.86,141.834L1175.61,141.085L1176.44,117.167L1185.78,112.917L1185.47,117.751Z" style="fill:rgb(228,226,220);fill-rule:nonzero;"/>
        </g>
    </g>
</svg>
